source/images/icons/icon-editorial/permis-chat.svg

<?xml version="1.0" encoding="UTF-8"?>
<svg width="80px" height="80px" viewBox="0 0 80 80" version="1.1" xmlns="http://www.w3.org/2000/svg" xmlns:xlink="http://www.w3.org/1999/xlink">
    <!-- Generator: Sketch 55.2 (78181) - https://sketchapp.com -->
    <title>Illustrative Icons/Permis-Chat</title>
    <desc>Created with Sketch.</desc>
    <g id="Illustrative-Icons/Permis-Chat" stroke="none" stroke-width="1" fill="none" fill-rule="evenodd">
        <path d="M53.6666667,33.6666667 C52.7500001,33.6666667 52.0000001,32.9166667 52.0000001,32 C52.0000001,31.0833334 52.7500001,30.3333334 53.6666667,30.3333334 L63.6666667,30.3333334 C64.5833334,30.3333334 65.3333334,31.0833334 65.3333334,32 C65.3333334,32.9166667 64.5833334,33.6666667 63.6666667,33.6666667 L53.6666667,33.6666667 L53.6666667,33.6666667 Z M53.6666667,42 L60.3333334,42 C61.2500001,42 62.0000001,41.25 62.0000001,40.3333334 C62.0000001,39.4166667 61.2500001,38.6666667 60.3333334,38.6666667 L53.6666667,38.6666667 C52.7500001,38.6666667 52.0000001,39.4166667 52.0000001,40.3333334 C52.0000001,41.25 52.7500001,42 53.6666667,42 L53.6666667,42 Z M53.6666667,50.3333334 L62.0000001,50.3333334 C62.9166667,50.3333334 63.6666667,49.5833334 63.6666667,48.6666667 C63.6666667,47.75 62.9166667,47 62.0000001,47 L53.6666667,47 C52.7500001,47 52.0000001,47.75 52.0000001,48.6666667 C52.0000001,49.5833334 52.7500001,50.3333334 53.6666667,50.3333334 L53.6666667,50.3333334 Z M10.3333333,18.6666667 C10.3333333,17.75 9.58333334,17 8.66666667,17 C7.75,17 7,17.75 7,18.6666667 C7,19.5833333 7.75,20.3333333 8.66666667,20.3333333 C9.58333334,20.3333333 10.3333333,19.5833333 10.3333333,18.6666667 L10.3333333,18.6666667 Z M25.3333334,37 C24.4166667,37 23.6666667,37.75 23.6666667,38.6666667 L23.6666667,40.3333334 C23.6666667,41.25 24.4166667,42 25.3333334,42 C26.25,42 27,41.25 27,40.3333334 L27,38.6666667 C27,37.75 26.25,37 25.3333334,37 L25.3333334,37 Z M35.3333334,37 C34.4166667,37 33.6666667,37.75 33.6666667,38.6666667 L33.6666667,40.3333334 C33.6666667,41.25 34.4166667,42 35.3333334,42 C36.25,42 37,41.25 37,40.3333334 L37,38.6666667 C37,37.75 36.25,37 35.3333334,37 L35.3333334,37 Z M28.6666667,45.3666667 C28.6666667,46.2833334 29.4166667,47.0333334 30.3333334,47.0333334 C31.25,47.0333334 32,46.2833334 32,45.3666667 C32,44.45 31.25,43.7 30.3333334,43.7 C29.4,43.7 28.6666667,44.4333334 28.6666667,45.3666667 L28.6666667,45.3666667 Z M47,25.8166667 L47,40.3333334 C47,49.5166667 39.5166667,57 30.3333334,57 C21.15,57 13.6666667,49.5166667 13.6666667,40.3333334 L13.6666667,25.8333333 C13.65,25.0333333 13.8,24.3333333 14.4,23.9 C15.15,23.3666667 16.0833333,23.6333333 16.6333333,24.3666667 L21.4,29.6 C23.9833334,27.95 27.05,26.9833333 30.35,26.9833333 C33.6166667,26.9833333 36.6666667,27.9333333 39.2333334,29.55 L44.0333334,24.35 C44.5666667,23.6 45.65,23.45 46.4,23.9833333 C46.9666667,24.4166667 47.0166667,25.05 47,25.8166667 L47,25.8166667 Z M43.6666667,30.7833334 L40.1,34.6 C37.6666667,31.9833334 34.1833334,30.3333334 30.3333334,30.3333334 C26.4833334,30.3333334 23,31.9833334 20.5666667,34.6 L17,30.9 L17,40.3333334 C17,47.6833334 22.9833334,53.6666667 30.3333334,53.6666667 C37.6833334,53.6666667 43.6666667,47.6833334 43.6666667,40.3333334 L43.6666667,30.7833334 Z M68.6666667,17 L15.35,17 C14.4333333,17 13.6833333,17.75 13.6833333,18.6666667 C13.6833333,19.5833333 14.4333333,20.3333333 15.35,20.3333333 L68.6666667,20.3333333 C69.5833334,20.3333333 70.3333334,21.0833333 70.3333334,22 L70.3333334,58.6666667 C70.3333334,59.5833334 69.5833334,60.3333334 68.6666667,60.3333334 L12,60.3333334 C11.0833333,60.3333334 10.3333333,59.5833334 10.3333333,58.6666667 L10.3333333,28.6666667 C10.3333333,27.75 9.58333334,27 8.66666667,27 C7.75,27 7,27.75 7,28.6666667 L7,58.6666667 C7,61.4166667 9.25,63.6666667 12,63.6666667 L68.6666667,63.6666667 C71.4166667,63.6666667 73.6666667,61.4166667 73.6666667,58.6666667 L73.6666667,22 C73.6666667,19.25 71.4166667,17 68.6666667,17 L68.6666667,17 Z M68.6666667,17 L15.35,17 C14.4333333,17 13.6833333,17.75 13.6833333,18.6666667 C13.6833333,19.5833333 14.4333333,20.3333333 15.35,20.3333333 L68.6666667,20.3333333 C69.5833334,20.3333333 70.3333334,21.0833333 70.3333334,22 L70.3333334,58.6666667 C70.3333334,59.5833334 69.5833334,60.3333334 68.6666667,60.3333334 L12,60.3333334 C11.0833333,60.3333334 10.3333333,59.5833334 10.3333333,58.6666667 L10.3333333,28.6666667 C10.3333333,27.75 9.58333334,27 8.66666667,27 C7.75,27 7,27.75 7,28.6666667 L7,58.6666667 C7,61.4166667 9.25,63.6666667 12,63.6666667 L68.6666667,63.6666667 C71.4166667,63.6666667 73.6666667,61.4166667 73.6666667,58.6666667 L73.6666667,22 C73.6666667,19.25 71.4166667,17 68.6666667,17 L68.6666667,17 Z" id="Shape-color" fill="#ADB5BD"></path>
    </g>
</svg>

<svg width="80" height="80">
    <title>
        Illustrative Icons/Permis-Chat
    </title>
    <path d="M53.667 33.667C52.75 33.667 52 32.917 52 32s.75-1.667 1.667-1.667h10c.916 0 1.666.75 1.666 1.667s-.75 1.667-1.666 1.667h-10zm0 8.333h6.666C61.25 42 62 41.25 62 40.333c0-.916-.75-1.666-1.667-1.666h-6.666c-.917 0-1.667.75-1.667 1.666 0 .917.75 1.667 1.667 1.667zm0 8.333H62c.917 0 1.667-.75 1.667-1.666 0-.917-.75-1.667-1.667-1.667h-8.333C52.75 47 52 47.75 52 48.667c0 .916.75 1.666 1.667 1.666zM10.333 18.667c0-.917-.75-1.667-1.666-1.667C7.75 17 7 17.75 7 18.667c0 .916.75 1.666 1.667 1.666.916 0 1.666-.75 1.666-1.666zm15 18.333c-.916 0-1.666.75-1.666 1.667v1.666c0 .917.75 1.667 1.666 1.667.917 0 1.667-.75 1.667-1.667v-1.666C27 37.75 26.25 37 25.333 37zm10 0c-.916 0-1.666.75-1.666 1.667v1.666c0 .917.75 1.667 1.666 1.667.917 0 1.667-.75 1.667-1.667v-1.666C37 37.75 36.25 37 35.333 37zm-6.666 8.367c0 .916.75 1.666 1.666 1.666.917 0 1.667-.75 1.667-1.666 0-.917-.75-1.667-1.667-1.667a1.65 1.65 0 0 0-1.666 1.667zM47 25.817v14.516C47 49.517 39.517 57 30.333 57c-9.183 0-16.666-7.483-16.666-16.667v-14.5c-.017-.8.133-1.5.733-1.933.75-.533 1.683-.267 2.233.467L21.4 29.6a16.568 16.568 0 0 1 8.95-2.617c3.267 0 6.317.95 8.883 2.567l4.8-5.2c.534-.75 1.617-.9 2.367-.367.567.434.617 1.067.6 1.834zm-3.333 4.966L40.1 34.6a13.323 13.323 0 0 0-9.767-4.267c-3.85 0-7.333 1.65-9.766 4.267L17 30.9v9.433c0 7.35 5.983 13.334 13.333 13.334 7.35 0 13.334-5.984 13.334-13.334v-9.55zm25-13.783H15.35c-.917 0-1.667.75-1.667 1.667 0 .916.75 1.666 1.667 1.666h53.317c.916 0 1.666.75 1.666 1.667v36.667c0 .916-.75 1.666-1.666 1.666H12c-.917 0-1.667-.75-1.667-1.666v-30c0-.917-.75-1.667-1.666-1.667C7.75 27 7 27.75 7 28.667v30c0 2.75 2.25 5 5 5h56.667c2.75 0 5-2.25 5-5V22c0-2.75-2.25-5-5-5zm0 0H15.35c-.917 0-1.667.75-1.667 1.667 0 .916.75 1.666 1.667 1.666h53.317c.916 0 1.666.75 1.666 1.667v36.667c0 .916-.75 1.666-1.666 1.666H12c-.917 0-1.667-.75-1.667-1.666v-30c0-.917-.75-1.667-1.666-1.667C7.75 27 7 27.75 7 28.667v30c0 2.75 2.25 5 5 5h56.667c2.75 0 5-2.25 5-5V22c0-2.75-2.25-5-5-5z" fill="#ADB5BD" fill-rule="evenodd"/>
</svg>
